X:205
T:O'Rourke's
R:reel
M:4/4
L:1/8
K:Amix
|:ed|cAeA fAeA| cAeA dfed| c~A3 f~d3| fage d2 ed|
cAeA fAeA| cAeA dfed| c~A3 f~d3| fage d2 ef||
|:g2fg e3f|gfed e~a3|gefd ed (3Bcd|fage d2ef|
g2fg e3f|gfed ea~a2|bgaf gfed|eaaf gfed||

